toolkits/global/packages/global-context/img/icons/editors.svg

<svg height="24" viewBox="0 0 24 24" width="24" xmlns="http://www.w3.org/2000/svg"><path d="m11.7259218 5.54588137c-.4881171-.34391207-1.0834332-.54588137-1.7259218-.54588137-1.65685425 0-3 1.34314575-3 3 0 1.02947485.5215457 1.96853646 1.3698342 2.5190079l.6301658.4089272v1.0240018l-.79002171.3290552c-1.93395773.8055207-3.20997829 2.7024791-3.20997829 4.8180274v.9009805h-1v-.9009805c0-2.5479714 1.54557359-4.7915398 3.82548288-5.7411543-1.09870406-.7129711-1.82548288-1.95054399-1.82548288-3.3578652 0-2.209139 1.790861-4 4-4 1.0907982 0 2.0796182.43662103 2.8012245 1.1446278-.3770758.09278571-.7373238.22835063-1.0753027.40125357zm-2.7259218 14.45411863h-1v-.9009805c0-2.5479714 1.54557359-4.7915398 3.8254829-5.7411543-1.0987041-.7129711-1.8254829-1.950544-1.8254829-3.3578652 0-2.209139 1.790861-4 4-4s4 1.790861 4 4c0 1.4073212-.7267788 2.6448941-1.8254829 3.3578652 2.2799093.9496145 3.8254829 3.1931829 3.8254829 5.7411543v.9009805h-1v-.9009805c0-2.1155483-1.2760206-4.0125067-3.2099783-4.8180274l-.7900217-.3290552v-1.0240018l.6301658-.4089272c.8482885-.5504714 1.3698342-1.489533 1.3698342-2.5190079 0-1.65685425-1.3431458-3-3-3s-3 1.34314575-3 3c0 1.0294749.5215457 1.9685365 1.3698342 2.5190079l.6301658.4089272v1.0240018l-.7900217.3290552c-1.9339577.8055207-3.2099783 2.7024791-3.2099783 4.8180274z" fill="#666" fill-rule="evenodd"/></svg>

<?xml version="1.0" encoding="UTF-8"?>
<svg width="24px" height="24px" viewBox="0 0 24 24" version="1.1" xmlns="http://www.w3.org/2000/svg" xmlns:xlink="http://www.w3.org/1999/xlink">
    <!-- Generator: Sketch 63.1 (92452) - https://sketch.com -->
    <title>icon-icon / editors</title>
    <desc>Created with Sketch.</desc>
    <g id="icon-/-editors" stroke="none" stroke-width="1" fill="none" fill-rule="evenodd">
        <path d="M11.7259218,5.54588137 C11.2378047,5.2019693 10.6424886,5 10,5 C8.34314575,5 7,6.34314575 7,8 C7,9.02947485 7.5215457,9.96853646 8.3698342,10.5190079 L9,10.9279351 L9,11.9519369 L8.20997829,12.2809921 C6.27602056,13.0865128 5,14.9834712 5,17.0990195 L5,18 L4,18 L4,17.0990195 C4,14.5510481 5.54557359,12.3074797 7.82548288,11.3578652 C6.72677882,10.6448941 6,9.40732121 6,8 C6,5.790861 7.790861,4 10,4 C11.0907982,4 12.0796182,4.43662103 12.8012245,5.1446278 C12.4241487,5.23741351 12.0639007,5.37297843 11.7259218,5.54588137 Z M9,20 L8,20 L8,19.0990195 C8,16.5510481 9.54557359,14.3074797 11.8254829,13.3578652 C10.7267788,12.6448941 10,11.4073212 10,10 C10,7.790861 11.790861,6 14,6 C16.209139,6 18,7.790861 18,10 C18,11.4073212 17.2732212,12.6448941 16.1745171,13.3578652 C18.4544264,14.3074797 20,16.5510481 20,19.0990195 L20,20 L19,20 L19,19.0990195 C19,16.9834712 17.7239794,15.0865128 15.7900217,14.2809921 L15,13.9519369 L15,12.9279351 L15.6301658,12.5190079 C16.4784543,11.9685365 17,11.0294749 17,10 C17,8.34314575 15.6568542,7 14,7 C12.3431458,7 11,8.34314575 11,10 C11,11.0294749 11.5215457,11.9685365 12.3698342,12.5190079 L13,12.9279351 L13,13.9519369 L12.2099783,14.2809921 C10.2760206,15.0865128 9,16.9834712 9,19.0990195 L9,20 Z" id="editors" fill="#666666"></path>
    </g>
</svg>
